X:1
T:Ewig steht fest der Kirche Haus
T:Ewig steht fest der Kirche Haus
T:Gotteshauslied zu Psalm 26,12
T:Ludvig M. Lindeman, 1840
T:Nikolai Frederik Severin Grundtvig, 1837; dt. Otto Riethmüller
T:Kirken den er et gammelt hus
T:Kirken den er et gammelt hus
T:Kirken den er et gammelt hus
C:Ludvig M. Lindeman, 1840
Z:Nikolai Frederik Severin Grundtvig, 1837; dt. Otto Riethmüller
Z:Kirken den er et gammelt hus
%%score [ ( 1 2 ) ( 3 4 ) ]
L:1/8
Q:1/4=120
M:3/4
K:F
V:1 treble nm="Sopran\nAlt" snm="S.\nA."
V:2 treble 
V:3 bass nm="Tenor\nBass" snm="T.\nB."
V:4 bass 
V:1
 D2 D2 A2 | F4 D2 | F4 G2 | A6 | A2 =B2 c2 | A2 F2 G2 | E6 | D6 | D2 D2 A2 | F4 D2 | F4 G2 | A6 | %12
w: E- wig steht|fest der|Kir- che|Haus,|Tür- me der|Er- de zer-|fal-|len.|Ü- ber das|Trüm- mer-|feld nach|Haus|
w: Ir- disch- e|Tem- pel|braucht Gott|nicht,|Do- me, die|Meis- ter er-|bau-|en,|Schat- ten sind|sie vor|sei- nem|Licht,|
w: Wir sind das|Haus der|Herr- lich-|keit,|Kir- che aus|le- ben- den|Stei-|nen,|wo un- term|Kreuz uns|al- le-|zeit|
w: kehrt in die|ärm- ste|Hüt- te|ein,|lässt uns dem|Kö- nigs- wort|lau-|schen,|sei- ner Ver-|klä- rung|Zeu- ge|sein;|
 A2 =B2 c2 | A2 F2 G2 | E6 | D6 | d2 c2 =B2 | c4 A2 | A4 G2 | F6 | A2 d2 f2 | e4 d2 | c4 =B2 | A6 | %24
w: ru- fen die|Glok- ken uns|al-|len,|la- den zum|Kreu- ze|jung und|alt,|ru- fen Müh-|sel- ge|mit Ge-|walt|
w: wel- ches kein|Au- ge kann|schau-|en.|A- ber er|selbst baut|sich ein|Haus,|wählt sich zur|Woh- nung|See- len|aus,|
w: Tau- fe und|Glau- be ver-|ei-|nen.|Wo auch nur|zwei zu-|sam- men|flehn,|war- ten auf|sein Vor-|ü- ber-|gehn,|
w: wer woll- te|Wel- ten drum|tau-|schen?|Le- ben und|Geist ist|da zur|Stund,|gött- lich- es|Wort aus|sei- nem|Mund|
 A2 A2 G2 | F2 G2 F2 | E6 | D6 |] %28
w: heim- wärts zur|e- wi- gen|Stil-|le.|
w: die sei- nem|Ru- fe ge-|hor-|chen.|
w: kommt Je- sus|in ih- re|Mit-|te,|
w: hei- ligt die|Hüt- te zum|Tem-|pel.|
V:2
 D2 D2 E2 | D4 D2 | D4 D2 | ^C6 | D2 D2 C2 | C2 D2 D2 | D2 ^C4 | D6 | D2 D2 E2 | D4 D2 | D4 D2 | %11
 ^C6 | D2 D2 C2 | C2 D2 D2 | D2 ^C4 | D6 | F2 E2 E2 | E4 F2 | F4 E2 | F6 | F2 A2 A2 | A4 =B2 | %22
 A4 ^G2 | A6 | D2 E2 ^C2 | D2 D2 D2 | D2 ^C4 | D6 |] %28
V:3
 F,2 F,2 A,2 | A,4 F,2 | B,4 D,2 | E,6 | F,2 G,2 G,2 | F,2 A,2 B,2 | A,4 G,2 | F,6 | F,2 F,2 A,2 | %9
 A,4 F,2 | B,4 D,2 | E,6 | F,2 G,2 G,2 | F,2 A,2 B,2 | A,4 G,2 | F,6 | A,2 A,2 ^G,2 | A,4 C2 | %18
 C4 C2 | A,6 | D2 D2 D2 | E4 F2 | E4 E2 | ^C6 | %24
"_6. Hier sagt der Taufstein: “Du bist sein“,\nhier der Altar ruft zum Mahle,\nhier ruft das Wort: „Und er ist dein\nbei dir im finstersten Tale.“\nJesus, der Herr in Ewigkeit,\nschenkt der Gemeinde allezeit\nGlauben und Hoffnung und Liebe.""_5. Doch ist der Kirche sichtbar Haus,\nda er ans Herz nimmt die Kleinen,\nuns wie ein liebes Vaterhaus,\nZuflucht und Freistatt der Seinen.\nHerrliche Wahrheit wird hier kund,\nhier schließt mit uns der Herr den Bund,\nschenkt uns des Königsreichs Erbe.\n\n\n" F,2 A,2 A,2 | %25
 A,2 G,2 A,2 | B,2 A,2 G,2 | F,6 |] %28
V:4
 D,2 D,2 ^C,2 | D,4 D,2 | B,,4 B,,2 | A,,6 | D,2 G,2 E,2 | F,2 D,2 G,,2 | A,,6 | D,6 | %8
 D,2 D,2 ^C,2 | D,4 D,2 | B,,4 B,,2 | A,,6 | D,2 G,2 E,2 | F,2 D,2 G,,2 | A,,6 | D,6 | %16
 D,2 E,2 E,2 | A,,4 F,2 | A,,4 C,2 | F,6 | D,2 F,2 D,2 | C,4 D,2 | E,4 E,2 | A,,6 | D,2 ^C,2 A,,2 | %25
 D,2 B,,2 A,,2 | G,,2 A,,4 | D,6 |] %28

